img/list-marker-5@35px.svg

<?xml version="1.0" encoding="UTF-8"?>
<svg width="24px" height="24px" viewBox="0 0 24 24" version="1.1" xmlns="http://www.w3.org/2000/svg" xmlns:xlink="http://www.w3.org/1999/xlink">
    <!-- Generator: Sketch 64 (93537) - https://sketch.com -->
    <title>list-marker-5@35px</title>
    <desc>Created with Sketch.</desc>
    <g id="list-marker-5@35px" stroke="none" stroke-width="1" fill="none" fill-rule="evenodd">
        <path d="M12,4 C16.418278,4 20,7.581722 20,12 C20,16.418278 16.418278,20 12,20 C7.581722,20 4,16.418278 4,12 C4,7.581722 7.581722,4 12,4 Z M14.1818182,8.36363636 L10.6298182,8.36363636 L10.4203636,11.2872727 L10.6734545,11.4530909 C11.0050909,11.3483636 11.3105455,11.3047273 11.6770909,11.3047273 C12.4538182,11.3047273 12.9250909,11.8283636 12.9250909,12.8669091 C12.9250909,13.8705455 12.3927273,14.464 11.5985455,14.464 C11.4065455,14.464 11.2669091,14.4465455 11.1272727,14.3941818 L11.0050909,13.5301818 C10.944,13.0152727 10.7432727,12.8232727 10.3854545,12.8232727 C10.1498182,12.8232727 9.92290909,12.9541818 9.81818182,13.216 C9.888,14.1672727 10.6298182,14.7694545 11.8516364,14.7694545 C13.3352727,14.7694545 14.4174545,14.0450909 14.4174545,12.7098182 C14.4174545,11.5054545 13.5098182,10.8334545 12.0349091,10.8334545 C11.616,10.8334545 11.232,10.8770909 10.8567273,10.9905455 L10.9701818,9.43709091 L14.1818182,9.43709091 L14.1818182,8.36363636 Z" id="Combined-Shape" fill="#5C7D7B"></path>
    </g>
</svg>

<svg width="24" height="24" xmlns="http://www.w3.org/2000/svg"><path d="M12 4a8 8 0 110 16 8 8 0 010-16zm2.182 4.364H10.63l-.21 2.923.253.166a3.176 3.176 0 011.004-.148c.777 0 1.248.523 1.248 1.562 0 1.004-.532 1.597-1.326 1.597-.192 0-.332-.017-.472-.07l-.122-.864c-.061-.515-.262-.707-.62-.707a.601.601 0 00-.567.393c.07.951.812 1.553 2.034 1.553 1.483 0 2.565-.724 2.565-2.06 0-1.204-.907-1.876-2.382-1.876-.419 0-.803.044-1.178.158l.113-1.554h3.212V8.364z" fill="#5C7D7B" fill-rule="evenodd"/></svg>
